X: 11591
T: Eel In The Sink, The
R: reel
M: 4/4
K: Adorian
e2AB cdec|d2BG DGBd|e2AB cdef|gedg eAAG|
E2AB cdec|d2BG DGBd|e2AB cdef|gedg eAAe|
a2ea aged|cdef g2fg|a2ea agab|gedB BAAe|
a2ea aged|cdef g2ga|ba~a2 agef|gedB BAAG|

